X: 40459
T: Tom Sullivan's
R: polka
M: 2/4
K: Dmixolydian
|:FG AB|cA G2|Ad d^c|d2 d>e|
fd ed|cA AB|c/B/A GE|1 D2 D2:|2 D2 Df||
|:fd ed|cA Af|fd ef|g2 a>g|
fd ed|cA AB|c/B/A GE|1 D2 Df:|2 D2 D2||

